src/assets/car.svg

<svg width="26" height="26" viewBox="0 0 26 26" fill="none" xmlns="http://www.w3.org/2000/svg">
<path d="M5.41667 18.4167C5.41667 18.9913 5.64494 19.5424 6.05127 19.9487C6.4576 20.3551 7.0087 20.5833 7.58333 20.5833C8.15797 20.5833 8.70907 20.3551 9.1154 19.9487C9.52173 19.5424 9.75 18.9913 9.75 18.4167M5.41667 18.4167C5.41667 17.842 5.64494 17.2909 6.05127 16.8846C6.4576 16.4783 7.0087 16.25 7.58333 16.25C8.15797 16.25 8.70907 16.4783 9.1154 16.8846C9.52173 17.2909 9.75 17.842 9.75 18.4167M5.41667 18.4167H3.25V11.9167M9.75 18.4167H16.25M16.25 18.4167C16.25 18.9913 16.4783 19.5424 16.8846 19.9487C17.2909 20.3551 17.842 20.5833 18.4167 20.5833C18.9913 20.5833 19.5424 20.3551 19.9487 19.9487C20.3551 19.5424 20.5833 18.9913 20.5833 18.4167M16.25 18.4167C16.25 17.842 16.4783 17.2909 16.8846 16.8846C17.2909 16.4783 17.842 16.25 18.4167 16.25C18.9913 16.25 19.5424 16.4783 19.9487 16.8846C20.3551 17.2909 20.5833 17.842 20.5833 18.4167M20.5833 18.4167H22.75V14.0833C22.75 13.5087 22.5217 12.9576 22.1154 12.5513C21.7091 12.1449 21.158 11.9167 20.5833 11.9167H19.5M3.25 11.9167L5.41667 6.5H15.1667L19.5 11.9167M3.25 11.9167H19.5M13 11.9167V6.5" stroke="white" stroke-width="1.5" stroke-linecap="round" stroke-linejoin="round"/>
</svg>

<svg xmlns="http://www.w3.org/2000/svg" width="26" height="26" fill="none" viewBox="0 0 26 26"><path stroke="#fff" stroke-linecap="round" stroke-linejoin="round" stroke-width="1.5" d="M5.417 18.417a2.167 2.167 0 0 0 4.333 0m-4.333 0a2.167 2.167 0 1 1 4.333 0m-4.333 0H3.25v-6.5m6.5 6.5h6.5m0 0a2.167 2.167 0 0 0 4.333 0m-4.333 0a2.167 2.167 0 1 1 4.333 0m0 0h2.167v-4.334a2.167 2.167 0 0 0-2.167-2.166H19.5m-16.25 0L5.417 6.5h9.75l4.333 5.417m-16.25 0H19.5m-6.5 0V6.5"/></svg>
